X: 56
T: No_1_Song_of_Mudjikikwawis.krn
N: Derived from No_1_Song_of_Mudjikikwawis.krn
%%abc-version 2.0
%%abcx-abcm2ps-target-version 5.9.1 (29 Sep 2008)
%%abc-creator hum2abc beta
%%abcx-conversion-date 2019/03/15 08:35:44
%%humdrum-veritas 2011624980
%%humdrum-veritas-data 2177233864
%%linebreak <none>
%%barnumbers 0
L: 1/8
M: 3/4
K: F clef=bass
[K:clef=bass][M:3/4]z4z C/C/ | 
(C2G,2)_A,/A,3/ ||  
[M:2/4]G,4 | 
z2G,3/F,/ ||  
[M:3/4]G,4z A,/A,/ | 
A,2G, z G,/G,3/ | 
F,4D,3/C,/ | 
C,4z G,/G,/ | 
(G,2D,2)F,/F,3/ ||  
[M:2/4]F,4 | 
z2F,F, ||  
[M:3/4]F,4D,/D,3/ ||  
[M:2/4]C,2(3D,D,D, | 
C,2(3G,,F,,F,, | 
F,,4 | 
F,,4 |]  



